creative/fonts/xavani/uni0024.svg

<?xml version="1.0" encoding="UTF-8" standalone="no"?>
<svg width="500" height="850" version="1.1" id="svg1" sodipodi:docname="uni0024.svg" inkscape:version="1.4.3 (0d15f750, 2025-12-25)" xmlns:inkscape="http://www.inkscape.org/namespaces/inkscape" xmlns:sodipodi="http://sodipodi.sourceforge.net/DTD/sodipodi-0.dtd" xmlns="http://www.w3.org/2000/svg" xmlns:svg="http://www.w3.org/2000/svg">
    <defs id="defs1" />
    <sodipodi:namedview id="namedview1" pagecolor="#ffffff" bordercolor="#000000" borderopacity="0.25" inkscape:showpageshadow="2" inkscape:pageopacity="0.0" inkscape:pagecheckerboard="0" inkscape:deskcolor="#d1d1d1" inkscape:zoom="0.59294118" inkscape:cx="249.60317" inkscape:cy="425" inkscape:window-width="930" inkscape:window-height="723" inkscape:window-x="0" inkscape:window-y="25" inkscape:window-maximized="0" inkscape:current-layer="svg1" />
    <path d="m 221.30078,355.70898 h 57.39844 v 0.002 l 40.58984,40.58984 v 57.39844 l -40.58984,40.58984 h -57.39844 l -40.58984,-40.58984 v -57.40039 z" id="path1" />
</svg>

<svg width="500" height="850" xmlns="http://www.w3.org/2000/svg">
    <path d="M 202.16406 309.51562 L 134.51562 377.16406 L 134.51562 472.83594 L 202.16406 540.48438 L 297.83594 540.48438 L 365.48438 472.83594 L 365.48438 377.16406 L 297.83594 309.51562 L 202.16406 309.51562 z M 221.30078 355.70898 L 278.69922 355.70898 L 278.69922 355.71094 L 319.28906 396.30078 L 319.28906 453.69922 L 278.69922 494.28906 L 221.30078 494.28906 L 180.71094 453.69922 L 180.71094 396.29883 L 221.30078 355.70898 z "/>
</svg>
